X: 18601
T: I Was Born For Sport
R: jig
M: 6/8
K: Gmajor
|:B|dgg fdd|cAB c2A|dgg fdd|cAF G2B|
dgg fdd|cAB c2A|cde fed|cAF G2:|
|:B|c2A d2A|dfe dcB|c2A d2B|cAF GAB|
c2A d2A|dfe d2B|cde fed|cAF G2:|

